src/assets/svg/icons/fa/nuevos/classic/thin/file-binary classic thin.svg

<svg xmlns="http://www.w3.org/2000/svg" viewBox="0 0 384 512"><path d="M374.6 150.6l-141.3-141.3C227.4 3.371 219.2 0 210.7 0H64C28.65 0 0 28.65 0 64l.0065 384c0 35.35 28.65 64 64 64H320c35.35 0 64-28.65 64-64V173.3C384 164.8 380.6 156.6 374.6 150.6zM224 22.63L361.4 160H248C234.8 160 224 149.2 224 136V22.63zM368 448c0 26.47-21.53 48-48 48H64c-26.47 0-48-21.53-48-48V64c0-26.47 21.53-48 48-48h144v120c0 22.06 17.94 40 40 40h120V448zM232 264c0 4.422 3.594 8 8 8h24v128H240c-4.406 0-8 3.578-8 8S235.6 416 240 416h64c4.406 0 8-3.578 8-8s-3.594-8-8-8h-24V264C280 259.6 276.4 256 272 256h-32C235.6 256 232 259.6 232 264zM144 256h-32C89.94 256 72 273.9 72 296v80C72 398.1 89.94 416 112 416h32c22.06 0 40-17.94 40-40v-80C184 273.9 166.1 256 144 256zM168 376c0 13.23-10.78 24-24 24h-32c-13.22 0-24-10.77-24-24v-80c0-13.23 10.78-24 24-24h32c13.22 0 24 10.77 24 24V376z"/></svg>

<svg xmlns="http://www.w3.org/2000/svg" viewBox="0 0 384 512"><!--! Font Awesome Pro 6.4.0 by @fontawesome - https://fontawesome.com License - https://fontawesome.com/license (Commercial License) Copyright 2023 Fonticons, Inc. --><path d="M64 496c-26.5 0-48-21.5-48-48V64c0-26.5 21.5-48 48-48H204.1c1.3 0 2.6 .1 3.9 .2V136c0 22.1 17.9 40 40 40H367.8c.2 1.3 .2 2.6 .2 3.9V448c0 26.5-21.5 48-48 48H64zM358.6 157.3c.9 .9 1.7 1.8 2.4 2.7H248c-13.3 0-24-10.7-24-24V22.9c1 .8 1.9 1.6 2.7 2.4L358.6 157.3zM64 0C28.7 0 0 28.7 0 64V448c0 35.3 28.7 64 64 64H320c35.3 0 64-28.7 64-64V179.9c0-12.7-5.1-24.9-14.1-33.9L238.1 14.1c-9-9-21.2-14.1-33.9-14.1H64zm48 256c-22.1 0-40 17.9-40 40v80c0 22.1 17.9 40 40 40h32c22.1 0 40-17.9 40-40V296c0-22.1-17.9-40-40-40H112zM88 296c0-13.3 10.7-24 24-24h32c13.3 0 24 10.7 24 24v80c0 13.3-10.7 24-24 24H112c-13.3 0-24-10.7-24-24V296zm152-40c-4.4 0-8 3.6-8 8s3.6 8 8 8h24V400H240c-4.4 0-8 3.6-8 8s3.6 8 8 8h32 32c4.4 0 8-3.6 8-8s-3.6-8-8-8H280V264c0-4.4-3.6-8-8-8H240z"/></svg>
